chart-box-outline.svg

<svg fill="currentColor" viewBox="0 0 24 24"><path d="M9 17H7v-7h2zm4 0h-2V7h2zm4 0h-2v-4h2zm2 2H5V5h14v14.1M19 3H5c-1.1 0-2 .9-2 2v14c0 1.1.9 2 2 2h14c1.1 0 2-.9 2-2V5c0-1.1-.9-2-2-2"/></svg>

<svg  viewBox="0 0 24 24" fill="currentColor"><path  d="M9 17H7V10H9V17M13 17H11V7H13V17M17 17H15V13H17V17M19 19H5V5H19V19.1M19 3H5C3.9 3 3 3.9 3 5V19C3 20.1 3.9 21 5 21H19C20.1 21 21 20.1 21 19V5C21 3.9 20.1 3 19 3Z"/></svg>
